/* XPM */
static char * cubridmigration_xpm[] = {
"48 48 232 2",
"!! c None",
"!# c #43CDFD",
"!$ c #42CDFD",
"!% c #43C9FC",
"!& c #43C2FC",
"!' c #41BAFC",
"!( c #3FAFFC",
"!) c #43D4FC",
"!* c #44D8FE",
"!+ c #43D3FD",
"!, c #43CBFD",
"!- c #42C1FD",
"!. c #42B7FC",
"!/ c #41ABFC",
"!0 c #44DDFE",
"!1 c #44E4FE",
"!2 c #44E3FE",
"!3 c #44DCFE",
"!4 c #43D2FD",
"!5 c #43C7FD",
"!6 c #42BBFD",
"!7 c #41AFFC",
"!8 c #41A1FC",
"!9 c #42CCFD",
"!: c #45EEFF",
"!; c #44ECFE",
"!< c #44E1FE",
"!= c #43D6FD",
"!> c #43CAFD",
"!? c #42BEFD",
"!@ c #41B1FC",
"!A c #41A4FC",
"!B c #4098FC",
"!C c #43C7FB",
"!D c #43C8FD",
"!E c #43C2FD",
"!F c #41B8FA",
"!G c #43BFFB",
"!H c #43CCFD",
"!I c #43D7FD",
"!J c #44E2FE",
"!K c #44EBFE",
"!L c #44E9FE",
"!M c #44E0FE",
"!N c #43D5FD",
"!O c #43C9FD",
"!P c #42BDFD",
"!Q c #41B0FC",
"!R c #41A3FC",
"!S c #4097FB",
"!T c #42D3FD",
"!U c #43CEFD",
"!V c #43C3FD",
"!W c #42B8FC",
"!X c #41ABFB",
"!Y c #42BCFC",
"!Z c #44DBFE",
"![ c #44DFFE",
"!] c #44D9FE",
"!^ c #43D0FD",
"!_ c #43C5FD",
"!` c #42BAFD",
"!a c #41AEFC",
"!b c #40A1FC",
"!c c #4095FC",
"!d c #3F8AFB",
"!e c #43D3FC",
"!f c #44DEFE",
"!g c #41B7FD",
"!h c #43D1FD",
"!i c #43D4FD",
"!j c #42BFFD",
"!k c #42B5FC",
"!l c #41A9FC",
"!m c #409DFC",
"!n c #4092FB",
"!o c #3F84F9",
"!p c #44E5FE",
"!q c #45F0FF",
"!r c #44E8FE",
"!s c #42C0FD",
"!t c #41A2FC",
"!u c #3F93FB",
"!v c #41AFFB",
"!w c #42B9FC",
"!x c #43C6FD",
"!y c #41ADFC",
"!z c #408DFB",
"!{ c #3F83FB",
"!| c #40A2FC",
"!} c #4093FC",
"!~ c #3FA7FB",
"#! c #42B6FC",
"## c #42BAFC",
"#$ c #42B4FC",
"#% c #409BFC",
"#& c #4091FB",
"#' c #3F87FB",
"#( c #43CFFD",
"#) c #409EFC",
"#* c #41AAFC",
"#+ c #4093FB",
"#, c #3F89FB",
"#- c #3E83FB",
"#. c #42B3FC",
"#/ c #41A6FC",
"#0 c #409AFC",
"#1 c #408CFB",
"#2 c #3FA2FB",
"#3 c #409DFB",
"#4 c #3E84FA",
"#5 c #41B0FB",
"#6 c #3F86FA",
"#7 c #41D5FC",
"#8 c #42CEFD",
"#9 c #3FA3FC",
"#: c #41B1FB",
"#; c #409BFB",
"#< c #4095FB",
"#= c #4097FC",
"#> c #41A5FC",
"#? c #41ACFC",
"#@ c #42B2FC",
"#A c #41A7FC",
"#B c #44DDFC",
"#C c #43D9FE",
"#D c #43D0FE",
"#E c #42C6FC",
"#F c #41B2FB",
"#G c #3F9FFA",
"#H c #3E8AFB",
"#I c #3E88FA",
"#J c #3E86FA",
"#K c #3E84FB",
"#L c #409EFB",
"#M c #409FFC",
"#N c #3E85FB",
"#O c #44D8FD",
"#P c #45ECFF",
"#Q c #4090FC",
"#R c #43D1FC",
"#S c #42C2FC",
"#T c #3FB0FB",
"#U c #3F8FFB",
"#V c #4096FC",
"#W c #3E82FA",
"#X c #43D5FC",
"#Y c #43C9FB",
"#Z c #3F9CFA",
"#[ c #43CFFC",
"#] c #3E86FB",
"#^ c #3E85FA",
"#_ c #3F82FB",
"#` c #42C4FC",
"#a c #41AFFD",
"#b c #41A1FB",
"#c c #41A9FD",
"#d c #3F95FC",
"#e c #409DF9",
"#f c #41A8FC",
"#g c #3F8BFB",
"#h c #40A9FB",
"#i c #42BCFD",
"#j c #4094FB",
"#k c #41B0FD",
"#l c #41A0F9",
"#m c #42CFFC",
"#n c #3FA8F9",
"#o c #41BDFD",
"#p c #3F9DFB",
"#q c #3F96FC",
"#r c #3E92FB",
"#s c #43DAFD",
"#t c #44EAFE",
"#u c #44DAFE",
"#v c #409AFD",
"#w c #42C7FC",
"#x c #44E7FE",
"#y c #44E0FD",
"#z c #40A0FC",
"#{ c #41C5FD",
"#| c #41CBFC",
"#} c #42C3FC",
"#~ c #41B3FC",
"$! c #42CCFB",
"$# c #43CDFC",
"$$ c #42BDFC",
"$% c #41B4FD",
"$& c #4098FD",
"$' c #3E8CFB",
"$( c #43D2FB",
"$) c #41BEFD",
"$* c #3FADFB",
"$+ c #40A2FB",
"$, c #4094FC",
"$- c #3E89FB",
"$. c #42CCFC",
"$/ c #41ADFB",
"$0 c #41C3FD",
"$1 c #3E87FB",
"$2 c #40A4FC",
"$3 c #44E6FE",
"$4 c #41B2FC",
"$5 c #42BCFB",
"$6 c #3F9EFA",
"$7 c #43C4FD",
"$8 c #45E6FF",
"$9 c #45E9FF",
"$: c #44D7FE",
"$; c #42C3FD",
"$< c #3FAEFC",
"$= c #408BFB",
"$> c #42BFFC",
"$? c #45E5FF",
"$@ c #44D6FE",
"$A c #42C2FD",
"$B c #409CFC",
"$C c #41B5FD",
"$D c #3F92FB",
"$E c #3F88FB",
"$F c #3F82F9",
"$G c #3FA8FC",
"$H c #42B6FD",
"$I c #42B8FD",
"$J c #3E8AFA",
"$K c #409AFB",
"$L c #4090FB",
"$M c #40A3FC",
"$N c #3F8CFB",
"$O c #4091FA",
"$P c #408FFB",
"$Q c #3F84FA",
"!!!!!!!!!!!!!!!!!!!!!!!!!!!!!!!!!!!!!!!!!!!!!!!!!!!!!!!!!!!!!!!!!!!!!!!!!!!!!!!!!!!!!!!!!!!!!!!!",
"!!!!!!!!!!!!!!!!!!!!!!!!!!!!!!!!!!!!!!!!!!!!!!!!!!!!!!!!!!!!!!!!!!!!!!!!!!!!!!!!!!!!!!!!!!!!!!!!",
"!!!!!!!!!!!!!!!!!!!!!!!!!!!!!!!!!!!!!!!!!!!!!!!!!!!!!!!!!!!!!!!!!!!!!!!!!!!!!!!!!!!!!!!!!!!!!!!!",
"!!!!!!!!!!!!!!!!!!!!!!!!!!!!!!!!!!!!!!!!!!!!!!!!!!!!!!!!!!!!!!!!!!!!!!!!!!!!!!!!!!!!!!!!!!!!!!!!",
"!!!!!!!!!!!!!!!!!!!!!!!!!!!!!!!!!!!!!!!!!!!!!!!!!!!!!!!!!!!!!!!!!!!!!!!!!!!!!!!!!!!!!!!!!!!!!!!!",
"!!!!!!!!!!!!!!!!!!!!!!!!!!!!!!!!!!!!!!!!!!!!!!!!!!!!!!!!!!!!!!!!!!!!!!!!!!!!!!!!!!!!!!!!!!!!!!!!",
"!!!!!!!!!!!!!!!!!!!!!!!!!!!!!!!!!!!!!!!!!!!!!!!!!!!!!!!!!!!!!!!!!!!!!!!!!!!!!!!!!!!!!!!!!!!!!!!!",
"!!!!!!!!!!!!!!!!!!!!!!!!!!!!!!!!!!!!!!!!!!!!!!!!!!!!!!!!!!!!!!!!!!!!!!!!!!!!!!!!!!!!!!!!!!!!!!!!",
"!!!!!!!!!!!!!!!!!!!!!!!!!!!!!!!!!!!!!!!!!!!!!!!!!!!!!!!!!!!!!!!!!!!#!$!%!&!'!(!!!!!!!!!!!!!!!!!!",
"!!!!!!!!!!!!!!!!!!!!!!!!!!!!!!!!!!!!!!!!!!!!!!!!!!!!!!!!!!!!!!!!!)!*!*!+!,!-!.!/!!!!!!!!!!!!!!!!",
"!!!!!!!!!!!!!!!!!!!!!!!!!!!!!!!!!!!!!!!!!!!!!!!!!!!!!!!!!!!!!!!)!0!1!2!3!4!5!6!7!8!!!!!!!!!!!!!!",
"!!!!!!!!!!!!!!!!!!!!!!!!!!!!!!!!!!!!!!!!!!!!!!!!!!!!!!!!!!!!!9!*!2!:!;!<!=!>!?!@!A!B!!!!!!!!!!!!",
"!!!!!!!!!!!!!!!!!!!C!D!E!F!!!!!!!!!!!!!!!!!!!!!!!!!!!!!!!!!G!H!I!J!K!L!M!N!O!P!Q!R!S!!!!!!!!!!!!",
"!!!!!!!!!!!!!!!!!T!I!N!U!V!W!X!!!!!!!!!!!!!!!!!!!!!!!!!!!!!Y!D!4!Z!M![!]!^!_!`!a!b!c!d!!!!!!!!!!",
"!!!!!!!!!!!!!!!e!f!1!M!=!,!?!7!b!!!!!!!!!!!!!!!!!!!!!!!!!!!g!-!>!h!N!i!^!D!j!k!l!m!n!o!!!!!!!!!!",
"!!!!!!!!!!!!!>!*!p!q!r!Z!U!s!@!t!u!!!!!!!!!!!!!!!!!!!!!!!!!v!w!-!x!O!O!_!j!.!y!R!B!z!{!!!!!!!!!!",
"!!!!!!!!!!!!!%!=!<!L!1!]!#!j!Q!|!}!!!!!!!!!!!!!!!!!!!!!!!!!~!7#!!`!P!P###$!y!A#%#&#'!!!!!!!!!!!!",
"!!!!!!!!!!!!!V#(!*!3!]!4!5!`!y#)#&!!!!!!!!!!!!!!!!!!!!!!!!!!!A#*!a!Q!Q!y!l!t#%#+#,#-!!!!!!!!!!!!",
"!!!!!!!!!!!!!6!_!H#(!#!5!?#.#/#0#1!!!!!!!!!!!!!!!!!!!!!!!!!!#2#3!b!R!R!b!m!B#&#,#4!!!!!!!!!!!!!!",
"!!!!!!!!!!!!#5!w!j!-!s!6#.!l#)#+#6!!!!!!!!!!!!#7#8#9!!!!!!!!#:#;#<#=#=!c#&#1#'#-!!!!!!!!!!!!!!!!",
"!!!!!!!!!!!!#>#?!@#@!@!y#A#)!c!d!l#B!!!!!!!!!!#C#D#>!!!!!!#E#F#G!!#H#H#I#J#-#K!!!!!!!!!!!!!!!!!!",
"!!!!!!!!!!!!!!#L!|!A!R#M#0!}!d#N#O#P!;!!!!!!!!!a#/#Q!!!!#R#S#T!!!!!!!!!!!!!!!!!!!!!!!!!!!!!!!!!!",
"!!!!!!!!!!!!!!#U!}#V!c!n!z#'#W!!!!!0!0#X#Y!!!!!!#Z!!!!#[#E!!!!!!!!!!!!!!!!!!!!!!!!!!!!!!!!!!!!!!",
"!!!!!!!!!!!!!!!!!!#6#]#^#-#_!!!!!!!!#Y#`!6#a!!!!#b!!!?!Y!!!!!!!!!!!!!!!!!!!!!!!!!!!!!!!!!!!!!!!!",
"!!!!!!!!!!!!!!!!!!!!!!!!!!!!!!!!!!!!!!!!#c#M#d#:#e#f#?!!!!!!!!!!!!!!!!!!!!!!!!!!!!!!!!!!!!!!!!!!",
"!!!!!!!!!!!!!!!!!!!!!!!!!!!!!!!!!!!!!!!!!!#g#h!J#i#j!!!!!!!!!!!!!!!!!!!!!!!!!!!!!!!!!!!!!!!!!!!!",
"!!!!!!!!!!!!!!!!!!!!!!!!!!!!!!!!!!!!!!!!!!!!#k!-#A#l!!!!!!!!!!!!!!!!!!!!!!!!!!!!!!!!!!!!!!!!!!!!",
"!!!!!!!!!!!!!!!!!!!!!!!!!!!!!!#m!,#n!!!!!^#o#p#q#r#s#t!!!!!!!!!!!!!!!!!!!!!!!!!!!!!!!!!!!!!!!!!!",
"!!!!!!!!!!!!!!!!!!!!!!!!!!!!!!!J#u#*#v#G!!!!#w#2!!!!#x#y#m!!!!!!!!!!!!!!!!!!!!!!!!!!!!!!!!!!!!!!",
"!!!!!!!!!!!!!!!!!!!!!!!!!!!!!!!-!P#z#'!!!!!!#{!!!!!!!!#|#}#~!!!!!!$!!U$#!x$$$%!!!!!!!!!!!!!!!!!!",
"!!!!!!!!!!!!!!!!!!!!!!!!!!!!!!$&#<$'!!!!!!$($)!!!!!!!!!!$*$+$,$-$.!*!3!]!h!x!`$/#p!!!!!!!!!!!!!!",
"!!!!!!!!!!!!!!!!!!!!!!!!!!!!!!!!!!!!!!!!!!$0!!!!!!!!!!!!!!!!$1$2!I!J!L!2!*!H!j!@#b!!!!!!!!!!!!!!",
"!!!!!!!!!!!!!!!!!!!!!!!!!!!!!!!!!!!!!!!!!!!@!!!!!!!!!!!!!!!!!!#Y!]$3!q#x!Z!U!s$4!R#j!!!!!!!!!!!!",
"!!!!!!!!!!!!!!!!!!!!!!!!!!!!!!!!!!!!!!$5#)$6!!!!!!!!!!!!!!!!!!!O!N!M!p!M!I!,!?!Q!b#+!!!!!!!!!!!!",
"!!!!!!!!!!!!!!!!!!!!!!!!!!!!!!!!!!!I!*!##i!l!!!!!!!!!!!!!!!!!.!V!#!N!*!N!U$7!W!/!m#&!!!!!!!!!!!!",
"!!!!!!!!!!!!!!!!!!!!!!!!!!!!!!!!!e$8$9$:$;!a$&!!!!!!!!!!!!!!$<##!E!D!,!O!V!6!Q!A!B$=!!!!!!!!!!!!",
"!!!!!!!!!!!!!!!!!!!!!!!!!!!!!!$>!4!2$?$@$A!y!S!!!!!!!!!!!!!!!!!7#!!6!P#i!.!Q#/$B#&#N!!!!!!!!!!!!",
"!!!!!!!!!!!!!!!!!!!!!!!!!!!!!!$C!5!4!+!O!`#/$D!!!!!!!!!!!!!!!!!t!l!y!7!y!l!R#%!n$E$F!!!!!!!!!!!!",
"!!!!!!!!!!!!!!!!!!!!!!!!!!!!!!$G$H!?!j$I!/#%$J!!!!!!!!!!!!!!!!!!$K#M#z#M$B#=$L#'#W!!!!!!!!!!!!!!",
"!!!!!!!!!!!!!!!!!!!!!!!!!!!!!!!!$M!l!l$2#0$N#K!!!!!!!!!!!!!!!!!!!!$O!n#&$P!d#^#-!!!!!!!!!!!!!!!!",
"!!!!!!!!!!!!!!!!!!!!!!!!!!!!!!!!!!#r!u#U#,#-!!!!!!!!!!!!!!!!!!!!!!!!!!$Q!{$F!!!!!!!!!!!!!!!!!!!!",
"!!!!!!!!!!!!!!!!!!!!!!!!!!!!!!!!!!!!!!!{!!!!!!!!!!!!!!!!!!!!!!!!!!!!!!!!!!!!!!!!!!!!!!!!!!!!!!!!",
"!!!!!!!!!!!!!!!!!!!!!!!!!!!!!!!!!!!!!!!!!!!!!!!!!!!!!!!!!!!!!!!!!!!!!!!!!!!!!!!!!!!!!!!!!!!!!!!!",
"!!!!!!!!!!!!!!!!!!!!!!!!!!!!!!!!!!!!!!!!!!!!!!!!!!!!!!!!!!!!!!!!!!!!!!!!!!!!!!!!!!!!!!!!!!!!!!!!",
"!!!!!!!!!!!!!!!!!!!!!!!!!!!!!!!!!!!!!!!!!!!!!!!!!!!!!!!!!!!!!!!!!!!!!!!!!!!!!!!!!!!!!!!!!!!!!!!!",
"!!!!!!!!!!!!!!!!!!!!!!!!!!!!!!!!!!!!!!!!!!!!!!!!!!!!!!!!!!!!!!!!!!!!!!!!!!!!!!!!!!!!!!!!!!!!!!!!",
"!!!!!!!!!!!!!!!!!!!!!!!!!!!!!!!!!!!!!!!!!!!!!!!!!!!!!!!!!!!!!!!!!!!!!!!!!!!!!!!!!!!!!!!!!!!!!!!!",
"!!!!!!!!!!!!!!!!!!!!!!!!!!!!!!!!!!!!!!!!!!!!!!!!!!!!!!!!!!!!!!!!!!!!!!!!!!!!!!!!!!!!!!!!!!!!!!!!"
};
